2 Export/Icons/Brands/Viber.svg

<svg xmlns="http://www.w3.org/2000/svg" xmlns:xlink="http://www.w3.org/1999/xlink" width="24" height="24" viewBox="0 0 24 24">
  <defs>
    <path id="viber-a" d="M11.0907162,3.00146596 C9.64696623,3.02096596 6.54046623,3.25796596 4.80271623,4.85021596 C3.51271623,6.13271596 3.06196623,8.02346596 3.00946623,10.364966 C2.96446623,12.697466 2.91196623,17.077466 7.13446623,18.270716 L7.13446623,20.085716 C7.13446623,20.085716 7.10596623,20.813216 7.58596623,20.963216 C8.17846623,21.150716 8.51596623,20.588966 9.07846623,19.988966 L10.1284662,18.803966 C13.0159662,19.043966 15.2284662,18.489716 15.4834662,18.407216 C16.0684662,18.219716 19.3692162,17.798966 19.9092162,13.418216 C20.4642162,8.89496596 19.6392162,6.04496596 18.1542162,4.75496596 L18.1467162,4.75346596 C17.6967162,4.34096596 15.8967162,3.02846596 11.8692162,3.01346596 C11.8692162,3.01346596 11.5722162,2.99471596 11.0907162,3.00146596 Z M11.1409662,4.27421596 C11.5497162,4.27196596 11.8009662,4.28921596 11.8009662,4.28921596 C15.2059662,4.29671596 16.8342162,5.32421596 17.2167162,5.66921596 C18.4692162,6.74096596 19.1127162,9.31121596 18.6417162,13.088216 C18.1917162,16.748216 15.5142162,16.980716 15.0192162,17.138216 C14.8092162,17.205716 12.8592162,17.685716 10.4052162,17.528216 C10.4052162,17.528216 8.57596623,19.733966 8.00596623,20.303966 C7.91596623,20.401466 7.81096623,20.431466 7.74346623,20.416466 C7.64596623,20.393966 7.61596623,20.273966 7.62346623,20.108966 L7.63846623,17.094716 C4.06021623,16.104716 4.27021623,12.368216 4.30771623,10.418216 C4.35271623,8.46821596 4.72021623,6.86921596 5.80771623,5.78921596 C7.27546623,4.46171596 9.91396623,4.28171596 11.1402162,4.27421596 L11.1409662,4.27421596 Z M11.4109662,6.2242147 C11.3513616,6.22401661 11.2941299,6.24755485 11.2519125,6.28963151 C11.2096951,6.33170817 11.1859662,6.38886099 11.1859662,6.44846596 C11.1859662,6.57273003 11.2867022,6.67346596 11.4109662,6.67346596 C12.5371816,6.65198092 13.6253131,7.08129336 14.4334662,7.86596596 C15.2509662,8.66096596 15.6492162,9.72596596 15.6642162,11.120966 C15.6642162,11.24523 15.7649522,11.345966 15.8892162,11.345966 L15.8892162,11.339216 C16.0134803,11.339216 16.1142162,11.23848 16.1142162,11.114216 C16.1704403,9.78840742 15.6796458,8.49769923 14.7567162,7.54421596 C13.8642162,6.67421596 12.7377162,6.2242147 11.4102162,6.2242147 L11.4109662,6.2242147 Z M8.44546623,6.74171596 C8.28596991,6.7189872 8.12346865,6.75069477 7.98421623,6.83171596 L7.97521623,6.83171596 C7.66771623,7.01171596 7.38421623,7.23671596 7.11421623,7.53671596 C6.91171623,7.77671596 6.79846623,8.01596596 6.76846623,8.24846596 C6.75081836,8.38482512 6.76362574,8.523401 6.80596623,8.65421596 L6.82096623,8.66171596 C7.05213724,9.34132537 7.35377928,9.99488313 7.72096623,10.611716 C8.19692485,11.4755824 8.78169356,12.2748503 9.46096623,12.989966 L9.48346623,13.019966 L9.51346623,13.042466 L9.53596623,13.064966 L9.55846623,13.087466 C10.2763857,13.7684592 11.0777807,14.3556448 11.9434662,14.834966 C12.9334662,15.374966 13.5349662,15.629966 13.8949662,15.734966 L13.8949662,15.742466 C13.9999662,15.772466 14.0959662,15.787466 14.1934662,15.787466 C14.5007598,15.7650404 14.7917098,15.640423 15.0199662,15.433466 C15.3124662,15.170966 15.5449662,14.879966 15.7174662,14.572466 L15.7174662,14.564966 C15.8899662,14.242466 15.8299662,13.934216 15.5824662,13.724216 C15.0836702,13.2878646 14.5436295,12.9010448 13.9699662,12.569216 C13.5874662,12.359216 13.1974662,12.486716 13.0399662,12.696716 L12.7024662,13.123466 C12.5299662,13.333466 12.2149662,13.303466 12.2149662,13.303466 L12.2059662,13.310966 C9.86596623,12.710966 9.24346623,10.341716 9.24346623,10.341716 C9.24346623,10.341716 9.21346623,10.019216 9.43096623,9.85421596 L9.85096623,9.51671596 C10.0534662,9.35171596 10.1959662,8.96171596 9.97846623,8.57921596 C9.64707954,8.00526752 9.26022983,7.46518512 8.82346623,6.96671596 C8.72846042,6.84888759 8.59433654,6.76905195 8.44546623,6.74171596 L8.44546623,6.74171596 Z M11.8002162,7.40921596 C11.6759522,7.40963017 11.575552,7.51070189 11.575965,7.63496596 C11.5763804,7.75923003 11.6774522,7.85963017 11.8017162,7.85921596 C12.5522782,7.87224394 13.2670342,8.18242108 13.7892162,8.72171596 C14.2651739,9.24676136 14.5086223,9.941942 14.4642162,10.649216 C14.4646295,10.773187 14.5652445,10.8734666 14.6892162,10.873466 L14.6967162,10.882466 C14.7565201,10.882466 14.8138637,10.8586581 14.856081,10.8163 C14.8982983,10.773942 14.9219156,10.7165195 14.9217162,10.656716 C14.9442162,9.76421596 14.6667162,9.01421596 14.1192162,8.41421596 C13.5717162,7.81421596 12.8067162,7.47671596 11.8317162,7.40921596 C11.8212291,7.40848006 11.8107033,7.40848006 11.8002162,7.40921596 L11.8002162,7.40921596 Z M12.1677162,8.62346596 C12.041174,8.61973804 11.9355692,8.71929872 11.9318412,8.84584096 C11.9281133,8.9723832 12.027674,9.07798803 12.1542162,9.08171596 C12.8967162,9.11921596 13.2567162,9.49421596 13.3017162,10.266716 C13.3057626,10.3880416 13.4053231,10.4842834 13.5267162,10.484216 L13.5342162,10.484216 C13.5952698,10.4823177 13.6529277,10.4556782 13.6939461,10.4104165 C13.7349646,10.3651548 13.7558179,10.3051611 13.7517162,10.244216 C13.6992162,9.23921596 13.1517162,8.67596596 12.1767162,8.62346596 C12.1737165,8.62340694 12.1707159,8.62340694 12.1677162,8.62346596 L12.1677162,8.62346596 Z"/>
  </defs>
  <g fill="none" fill-rule="evenodd">
    <polygon points="0 0 24 0 24 24 0 24"/>
    <mask id="viber-b" fill="#fff">
      <use xlink:href="#viber-a"/>
    </mask>
    <use fill="#000" xlink:href="#viber-a"/>
    <g fill="#000" mask="url(#viber-b)">
      <rect width="24" height="24"/>
    </g>
  </g>
</svg>

<svg xmlns="http://www.w3.org/2000/svg" xmlns:xlink="http://www.w3.org/1999/xlink" width="24" height="24" viewBox="0 0 24 24">
  <defs>
    <path id="viber-a" d="M11.09 3.001c-1.443.02-4.55.257-6.287 1.85-1.29 1.282-1.741 3.172-1.794 5.514-.045 2.332-.097 6.712 4.125 7.906v1.815s-.028.727.452.877c.592.188.93-.374 1.492-.974l1.05-1.185c2.888.24 5.1-.314 5.355-.397.585-.187 3.886-.608 4.426-4.989.555-4.523-.27-7.373-1.755-8.663l-.007-.002c-.45-.412-2.25-1.725-6.278-1.74 0 0-.297-.018-.778-.012zm.051 1.273c.409-.002.66.015.66.015 3.405.008 5.033 1.035 5.416 1.38 1.252 1.072 1.896 3.642 1.425 7.42-.45 3.66-3.128 3.892-3.623 4.05-.21.067-2.16.547-4.614.39 0 0-1.829 2.205-2.399 2.775-.09.097-.195.127-.263.112-.097-.022-.127-.142-.12-.307l.015-3.014c-3.578-.99-3.368-4.727-3.33-6.677.045-1.95.412-3.549 1.5-4.629 1.467-1.327 4.106-1.507 5.332-1.515h.001zm.27 1.95a.224.224 0 1 0 0 .45 4.223 4.223 0 0 1 3.022 1.192c.818.795 1.216 1.86 1.231 3.255 0 .124.101.225.225.225v-.007c.124 0 .225-.1.225-.225a4.838 4.838 0 0 0-1.357-3.57c-.893-.87-2.02-1.32-3.347-1.32h.001zm-2.966.518a.716.716 0 0 0-.46.09h-.01c-.307.18-.59.405-.86.705-.203.24-.317.479-.347.711a.93.93 0 0 0 .038.406l.015.008c.231.68.533 1.333.9 1.95.476.864 1.06 1.663 1.74 2.378l.022.03.03.022.023.023.022.022c.718.681 1.52 1.269 2.385 1.748.99.54 1.592.795 1.952.9v.007c.105.03.201.045.298.045a1.38 1.38 0 0 0 .827-.354 3.38 3.38 0 0 0 .697-.86v-.008c.173-.323.113-.63-.135-.84a10.224 10.224 0 0 0-1.612-1.156c-.383-.21-.773-.082-.93.128l-.338.426c-.172.21-.487.18-.487.18l-.009.008c-2.34-.6-2.963-2.97-2.963-2.97s-.03-.322.188-.487l.42-.337c.202-.165.345-.555.127-.938a10.142 10.142 0 0 0-1.155-1.612.632.632 0 0 0-.378-.225zm3.355.667a.225.225 0 0 0 .002.45c.75.013 1.465.323 1.987.863.476.525.72 1.22.675 1.927 0 .124.101.224.225.224l.008.01a.225.225 0 0 0 .225-.226c.022-.893-.255-1.643-.803-2.243-.547-.6-1.312-.937-2.287-1.005H11.8zm.368 1.214a.23.23 0 0 0-.014.459c.743.037 1.103.412 1.148 1.185a.225.225 0 0 0 .225.217h.007a.225.225 0 0 0 .218-.24c-.053-1.005-.6-1.568-1.575-1.62h-.01z"/>
  </defs>
  <g fill="none" fill-rule="evenodd">
    <polygon points="0 0 24 0 24 24 0 24"/>
    <mask id="viber-b" fill="#fff">
      <use xlink:href="#viber-a"/>
    </mask>
    <use fill="#000" xlink:href="#viber-a"/>
    <g fill="#000" mask="url(#viber-b)">
      <rect width="24" height="24"/>
    </g>
  </g>
</svg>
